symbols/web/add_business/materialsymbolsoutlined/add_business_wght500fill1_40px.svg

<svg xmlns="http://www.w3.org/2000/svg" height="40" width="40"><path d="M30.042 38.417v-5.042h-5v-3h5v-5h3v5h5v3h-5v5.042ZM3.958 33.5V23.375h-2v-3.167l1.834-8.375h25l1.875 8.542V23h-2.042v5.958H25.5V23.25h-7.417V33.5Zm3.167-3.125h7.792v-7H7.125ZM3.75 9.625V6.583h25.125v3.042Z"/></svg>

<svg xmlns="http://www.w3.org/2000/svg" height="40" width="40"><path d="M30.042 38.417V33.375H25.042V30.375H30.042V25.375H33.042V30.375H38.042V33.375H33.042V38.417ZM3.958 33.5V23.375H1.958V20.208L3.792 11.833H28.792L30.667 20.375V23H28.625V28.958H25.5V23.25H18.083V33.5ZM7.125 30.375H14.917V23.375H7.125ZM3.75 9.625V6.583H28.875V9.625Z"/></svg>
